!!!SOCIAL_FUNCTION:	bird dance songs
!!!PDT:	1956
!!!OTL: No_86_Bird_Dance_Song_(i).krn
!!!LANG: Non-Tone
!!!LING_GROUP: Muskogean
!!!REG: Florida
**kern
*staff1
=1-
*clefF4
*k[b-]
*M3/4
2c\
16c\LL
16c\
(16c\
16B-\JJ)
=2||
*M2/4
4A\
(8A\L
8F\J)
=3
8.c\L
16c\Jk
(8c\L
8B-\J)
=4||
*M3/4
8A\L
8F\J
4F\
4r
=5||
*M2/4
4A\
4c\
=6!|:
4A\
4A\
=7
4F\
4F\
=8
8B-\L
8A\J
(8B-\L
8A\J)
=9
8A\L
8F\J
[4F\
=10
4F\]
4r
=11
4F\
(8F/L
8C/J)
=12
2F\
==:|!
*-
